images/indikatorenset/4231.svg

<?xml version="1.0" standalone="no"?><!DOCTYPE svg PUBLIC "-//W3C//DTD SVG 1.1//EN" "http://www.w3.org/Graphics/SVG/1.1/DTD/svg11.dtd"><svg xmlns:xlink="http://www.w3.org/1999/xlink" version="1.1" class="highcharts-root" style="font-family:arial;font-size:9pt;" xmlns="http://www.w3.org/2000/svg" width="485" height="415"><desc>Created with Highstock 5.0.14</desc><defs><clipPath id="highcharts-je50slc-7"><rect x="0" y="0" width="423" height="254" fill="none"></rect></clipPath><clipPath id="highcharts-je50slc-8"><rect x="0" y="0" width="423" height="254" fill="none"></rect></clipPath></defs><rect fill="#fbfbfb" class="highcharts-background" x="0" y="0" width="485" height="415" rx="0" ry="0"></rect><rect fill="none" class="highcharts-plot-background" x="52" y="90" width="423" height="254"></rect><g class="highcharts-label" style="cursor:pointer;" transform="translate(10,451)"><text x="0" y="0"><tspan>&gt; Indikator-Details</tspan></text></g><g class="highcharts-pane-group"></g><g class="highcharts-grid highcharts-xaxis-grid "><path fill="none" class="highcharts-grid-line" d="M 84.5 90 L 84.5 344" opacity="1"></path><path fill="none" class="highcharts-grid-line" d="M 116.5 90 L 116.5 344" opacity="1"></path><path fill="none" class="highcharts-grid-line" d="M 149.5 90 L 149.5 344" opacity="1"></path><path fill="none" class="highcharts-grid-line" d="M 181.5 90 L 181.5 344" opacity="1"></path><path fill="none" class="highcharts-grid-line" d="M 214.5 90 L 214.5 344" opacity="1"></path><path fill="none" class="highcharts-grid-line" d="M 246.5 90 L 246.5 344" opacity="1"></path><path fill="none" class="highcharts-grid-line" d="M 279.5 90 L 279.5 344" opacity="1"></path><path fill="none" class="highcharts-grid-line" d="M 311.5 90 L 311.5 344" opacity="1"></path><path fill="none" class="highcharts-grid-line" d="M 344.5 90 L 344.5 344" opacity="1"></path><path fill="none" class="highcharts-grid-line" d="M 376.5 90 L 376.5 344" opacity="1"></path><path fill="none" class="highcharts-grid-line" d="M 409.5 90 L 409.5 344" opacity="1"></path><path fill="none" class="highcharts-grid-line" d="M 441.5 90 L 441.5 344" opacity="1"></path><path fill="none" class="highcharts-grid-line" d="M 474.5 90 L 474.5 344" opacity="1"></path><path fill="none" class="highcharts-grid-line" d="M 51.5 90 L 51.5 344" opacity="1"></path></g><g class="highcharts-grid highcharts-yaxis-grid "><path fill="none" stroke="#e6e6e6" stroke-width="1" class="highcharts-grid-line" d="M 52 344.5 L 475 344.5" opacity="1"></path><path fill="none" stroke="#e6e6e6" stroke-width="1" class="highcharts-grid-line" d="M 52 281.5 L 475 281.5" opacity="1"></path><path fill="none" stroke="#e6e6e6" stroke-width="1" class="highcharts-grid-line" d="M 52 217.5 L 475 217.5" opacity="1"></path><path fill="none" stroke="#e6e6e6" stroke-width="1" class="highcharts-grid-line" d="M 52 154.5 L 475 154.5" opacity="1"></path><path fill="none" stroke="#e6e6e6" stroke-width="1" class="highcharts-grid-line" d="M 52 89.5 L 475 89.5" opacity="1"></path></g><g class="highcharts-grid highcharts-yaxis-grid "></g><rect fill="none" class="highcharts-plot-border" x="52" y="90" width="423" height="254"></rect><g class="highcharts-axis highcharts-xaxis "><path fill="none" class="highcharts-axis-line" stroke="#ccd6eb" stroke-width="1" d="M 52 344.5 L 475 344.5"></path></g><g class="highcharts-axis highcharts-yaxis "><path fill="none" class="highcharts-axis-line" d="M 52 90 L 52 344"></path></g><g class="highcharts-axis highcharts-yaxis "><path fill="none" class="highcharts-axis-line" d="M 475 90 L 475 344"></path></g><g class="highcharts-series-group"><g class="highcharts-series highcharts-series-0 highcharts-line-series highcharts-color-undefined " transform="translate(52,90) scale(1 1)" clip-path="url(#highcharts-je50slc-8)"><path fill="none" d="M 16.269230769231 20.319999999999993 L 48.807692307692 91.44 L 81.346153846154 111.75999999999999 L 113.88461538462 132.07999999999998 L 146.42307692308 149.86 L 178.96153846154 111.75999999999999 L 211.5 127 L 244.03846153846 109.22 L 276.57692307692 147.32 L 309.11538461538 144.78000000000003 L 341.65384615385 127 L 374.19230769231 147.32 L 406.73076923077 137.16" class="highcharts-graph" stroke="#FF8028" stroke-width="2" stroke-linejoin="round" stroke-linecap="round"></path></g><g class="highcharts-markers highcharts-series-0 highcharts-line-series highcharts-color-undefined " transform="translate(52,90) scale(1 1)" clip-path="none"></g><g class="highcharts-series highcharts-series-1 highcharts-line-series highcharts-color-undefined " transform="translate(52,90) scale(1 1)" clip-path="url(#highcharts-je50slc-8)"><path fill="none" d="M 16.269230769231 50.79999999999998 L 48.807692307692 50.79999999999998 L 81.346153846154 50.79999999999998 L 113.88461538462 50.79999999999998 L 146.42307692308 50.79999999999998 L 178.96153846154 50.79999999999998 L 211.5 50.79999999999998 L 244.03846153846 50.79999999999998 L 276.57692307692 50.79999999999998 L 309.11538461538 50.79999999999998 L 341.65384615385 50.79999999999998 L 374.19230769231 50.79999999999998 L 406.73076923077 50.79999999999998" class="highcharts-graph" stroke="#444444" stroke-width="2" stroke-dasharray="6,2"></path></g><g class="highcharts-markers highcharts-series-1 highcharts-line-series highcharts-color-undefined " transform="translate(52,90) scale(1 1)" clip-path="none"></g></g><text x="10" text-anchor="start" class="highcharts-title" style="color:#000000;font-size:1.1em;font-weight:bold;fill:#000000;" y="20"><tspan>AOX-Fracht Abwasser</tspan></text><text x="10" text-anchor="start" class="highcharts-subtitle" style="color:#000000;font-size:0.9em;fill:#000000;" y="38"><tspan>Milligramm pro Liter</tspan></text><g class="highcharts-legend" transform="translate(10,40)"><rect fill="none" class="highcharts-legend-box" rx="0" ry="0" x="0" y="0" width="244" height="38" visibility="visible"></rect><g><g><g class="highcharts-legend-item highcharts-line-series highcharts-color-undefined highcharts-series-0" transform="translate(12,7)"><path fill="none" d="M 0 11 L 16 11" class="highcharts-graph" stroke="#FF8028" stroke-width="2"></path><text x="21" style="color:#333333;font-size:1em;font-weight:normal;cursor:pointer;fill:#333333;" text-anchor="start" y="15"><tspan>Kanton Basel-Stadt</tspan></text></g><g class="highcharts-legend-item highcharts-line-series highcharts-color-undefined highcharts-series-1" transform="translate(156.328125,7)"><path fill="none" d="M 0 11 L 16 11" class="highcharts-graph" stroke-dasharray="6,2" stroke="#444444" stroke-width="2"></path><text x="21" y="15" style="color:#333333;font-size:1em;font-weight:normal;cursor:pointer;fill:#333333;" text-anchor="start"><tspan>Grenzwert</tspan></text></g></g></g></g><g class="highcharts-axis-labels highcharts-xaxis-labels "><text x="68.26923076923077" style="color:#000000;cursor:default;font-size:0.9em;fill:#000000;" text-anchor="middle" transform="translate(0,0)" y="363" opacity="1">2004</text><text x="100.8076923076923" style="color:#000000;cursor:default;font-size:0.9em;fill:#000000;" text-anchor="middle" transform="translate(0,0)" y="363" opacity="1">2005</text><text x="133.34615384615387" style="color:#000000;cursor:default;font-size:0.9em;fill:#000000;" text-anchor="middle" transform="translate(0,0)" y="363" opacity="1">2006</text><text x="165.8846153846154" style="color:#000000;cursor:default;font-size:0.9em;fill:#000000;" text-anchor="middle" transform="translate(0,0)" y="363" opacity="1">2007</text><text x="198.42307692307693" style="color:#000000;cursor:default;font-size:0.9em;fill:#000000;" text-anchor="middle" transform="translate(0,0)" y="363" opacity="1">2008</text><text x="230.96153846153848" style="color:#000000;cursor:default;font-size:0.9em;fill:#000000;" text-anchor="middle" transform="translate(0,0)" y="363" opacity="1">2009</text><text x="263.5" style="color:#000000;cursor:default;font-size:0.9em;fill:#000000;" text-anchor="middle" transform="translate(0,0)" y="363" opacity="1">2010</text><text x="296.03846153846155" style="color:#000000;cursor:default;font-size:0.9em;fill:#000000;" text-anchor="middle" transform="translate(0,0)" y="363" opacity="1">2011</text><text x="328.5769230769231" style="color:#000000;cursor:default;font-size:0.9em;fill:#000000;" text-anchor="middle" transform="translate(0,0)" y="363" opacity="1">2012</text><text x="361.11538461538464" style="color:#000000;cursor:default;font-size:0.9em;fill:#000000;" text-anchor="middle" transform="translate(0,0)" y="363" opacity="1">2013</text><text x="393.6538461538462" style="color:#000000;cursor:default;font-size:0.9em;fill:#000000;" text-anchor="middle" transform="translate(0,0)" y="363" opacity="1">2014</text><text x="426.19230769230774" style="color:#000000;cursor:default;font-size:0.9em;fill:#000000;" text-anchor="middle" transform="translate(0,0)" y="363" opacity="1">2015</text><text x="458.7307692307692" style="color:#000000;cursor:default;font-size:0.9em;fill:#000000;" text-anchor="middle" transform="translate(0,0)" y="363" opacity="1">2016</text></g><g class="highcharts-axis-labels highcharts-yaxis-labels "><text x="37" style="color:#000000;cursor:default;font-size:0.9em;fill:#000000;" text-anchor="end" transform="translate(0,0)" y="349" opacity="1"><tspan>0</tspan></text><text x="37" style="color:#000000;cursor:default;font-size:0.9em;fill:#000000;" text-anchor="end" transform="translate(0,0)" y="285" opacity="1"><tspan>0.025</tspan></text><text x="37" style="color:#000000;cursor:default;font-size:0.9em;fill:#000000;" text-anchor="end" transform="translate(0,0)" y="222" opacity="1"><tspan>0.05</tspan></text><text x="37" style="color:#000000;cursor:default;font-size:0.9em;fill:#000000;" text-anchor="end" transform="translate(0,0)" y="158" opacity="1"><tspan>0.075</tspan></text><text x="37" style="color:#000000;cursor:default;font-size:0.9em;fill:#000000;" text-anchor="end" transform="translate(0,0)" y="95" opacity="1"><tspan>0.1</tspan></text></g><g class="highcharts-axis-labels highcharts-yaxis-labels "></g><text x="10" class="highcharts-credits" text-anchor="start" style="cursor:default;color:#000000;font-size:0.8em;fill:#000000;" y="400"><tspan>Quelle: ProRheno AG; Amt für Industrielle Betriebe Basel-Landschaft; ARA Laufental-Lüsseltal</tspan></text></svg>

<svg class="highcharts-root" xmlns="http://www.w3.org/2000/svg" viewBox="0 0 485 415" font-family="Arial" font-size="12">
    <defs>
        <clipPath id="a">
            <path fill="none" d="M0 0h423v254H0z"/>
        </clipPath>
    </defs>
    <rect fill="#fbfbfb" class="highcharts-background" width="485" height="415" rx="0" ry="0"/>
    <path fill="none" class="highcharts-plot-background" d="M52 90h423v254H52z"/>
    <text transform="translate(10 451)" class="highcharts-label" cursor="pointer">
        <tspan>&gt; Indikator-Details</tspan>
    </text>
    <g class="highcharts-grid highcharts-xaxis-grid">
        <path fill="none" class="highcharts-grid-line" d="M84.5 90v254m0-254v254m32-254v254m0-254v254m33-254v254m0-254v254m32-254v254m0-254v254m33-254v254m0-254v254m32-254v254m0-254v254m33-254v254m0-254v254m32-254v254m0-254v254m33-254v254m0-254v254m32-254v254m0-254v254m33-254v254m0-254v254m32-254v254m0-254v254m33-254v254m0-254v254M51.5 90v254m0-254v254"/>
    </g>
    <g class="highcharts-grid highcharts-yaxis-grid">
        <path fill="none" stroke="#e6e6e6" class="highcharts-grid-line" d="M52 344.5h423m-423-63h423m-423-64h423m-423-63h423m-423-65h423"/>
    </g>
    <path fill="none" class="highcharts-plot-border" d="M52 90h423v254H52z"/>
    <g class="highcharts-axis highcharts-xaxis">
        <path fill="none" class="highcharts-axis-line" stroke="#ccd6eb" d="M52 344.5h423"/>
    </g>
    <g class="highcharts-axis highcharts-yaxis">
        <path fill="none" class="highcharts-axis-line" d="M52 90v254"/>
    </g>
    <g class="highcharts-axis highcharts-yaxis">
        <path fill="none" class="highcharts-axis-line" d="M475 90v254"/>
    </g>
    <g class="highcharts-series-group">
        <g class="highcharts-series highcharts-series-0 highcharts-line-series highcharts-color-undefined" transform="translate(52 90)" clip-path="url(#a)">
            <path fill="none" d="M16.27 20.32l32.538 71.12 32.538 20.32 32.539 20.32 32.538 17.78 32.539-38.1L211.5 127l32.538-17.78 32.539 38.1 32.538-2.54L341.654 127l32.538 20.32 32.539-10.16" class="highcharts-graph" stroke="#FF8028" stroke-width="2" stroke-linejoin="round" stroke-linecap="round"/>
            <path fill="none" d="M6.27 20.32h10l32.538 71.12 32.538 20.32 32.539 20.32 32.538 17.78 32.539-38.1L211.5 127l32.538-17.78 32.539 38.1 32.538-2.54L341.654 127l32.538 20.32 32.539-10.16h10" stroke-linejoin="round" stroke="rgba(192,192,192,0.0001)" stroke-width="22" class="highcharts-tracker"/>
        </g>
        <g class="highcharts-series highcharts-series-1 highcharts-line-series highcharts-color-undefined" transform="translate(52 90)" clip-path="url(#a)">
            <path fill="none" d="M16.27 50.8h390.46" class="highcharts-graph" stroke="#444" stroke-width="2" stroke-dasharray="6,2"/>
            <path fill="none" d="M6.27 50.8h410.46" stroke-linejoin="round" stroke="rgba(192,192,192,0.0001)" stroke-width="22" class="highcharts-tracker"/>
        </g>
    </g>
    <text x="10" class="highcharts-title" y="20" color="#000" font-size="1.1em" font-weight="700">
        <tspan>AOX-Fracht Abwasser</tspan>
    </text>
    <text x="10" class="highcharts-subtitle" y="38" color="#000" font-size=".9em">
        <tspan>Milligramm pro Liter</tspan>
    </text>
    <g class="highcharts-legend" transform="translate(10 40)">
        <rect fill="none" class="highcharts-legend-box" rx="0" ry="0" width="244" height="38"/>
        <g class="highcharts-legend-item highcharts-line-series highcharts-color-undefined highcharts-series-0">
            <path fill="none" d="M12 18h16" class="highcharts-graph" stroke="#FF8028" stroke-width="2"/>
            <text x="21" y="15" color="#333" font-size="1em" font-weight="400" cursor="pointer" fill="#333" transform="translate(12 7)">
                <tspan>Kanton Basel-Stadt</tspan>
            </text>
        </g>
        <g class="highcharts-legend-item highcharts-line-series highcharts-color-undefined highcharts-series-1">
            <path fill="none" d="M156.328 18h16" class="highcharts-graph" stroke-dasharray="6,2" stroke="#444" stroke-width="2"/>
            <text x="21" y="15" color="#333" font-size="1em" font-weight="400" cursor="pointer" fill="#333" transform="translate(156.328 7)">
                <tspan>Grenzwert</tspan>
            </text>
        </g>
    </g>
    <g class="highcharts-axis-labels highcharts-xaxis-labels" text-anchor="middle" color="#000" cursor="default" font-size=".9em">
        <text x="68.269" y="363">
            2004
        </text>
        <text x="100.808" y="363">
            2005
        </text>
        <text x="133.346" y="363">
            2006
        </text>
        <text x="165.885" y="363">
            2007
        </text>
        <text x="198.423" y="363">
            2008
        </text>
        <text x="230.962" y="363">
            2009
        </text>
        <text x="263.5" y="363">
            2010
        </text>
        <text x="296.038" y="363">
            2011
        </text>
        <text x="328.577" y="363">
            2012
        </text>
        <text x="361.115" y="363">
            2013
        </text>
        <text x="393.654" y="363">
            2014
        </text>
        <text x="426.192" y="363">
            2015
        </text>
        <text x="458.731" y="363">
            2016
        </text>
    </g>
    <g class="highcharts-axis-labels highcharts-yaxis-labels" text-anchor="end" color="#000" cursor="default" font-size=".9em">
        <text x="37" y="349">
            <tspan>0</tspan>
        </text>
        <text x="37" y="285">
            <tspan>0.025</tspan>
        </text>
        <text x="37" y="222">
            <tspan>0.05</tspan>
        </text>
        <text x="37" y="158">
            <tspan>0.075</tspan>
        </text>
        <text x="37" y="95">
            <tspan>0.1</tspan>
        </text>
    </g>
    <text x="10" class="highcharts-credits" y="400" cursor="default" color="#000" font-size=".8em">
        <tspan>Quelle: ProRheno AG; Amt für Industrielle Betriebe Basel-Landschaft; ARA Laufental-Lüsseltal</tspan>
    </text>
</svg>
